X:319
T:Mr.Beveridge's Ground. (p)1695.PLFD.319
T:Beveridge's Ground. (p)1695.PLFD.319
M:4/4
L:1/8
Q:1/2=80
S:Playford, Dancing Master,9th Ed,1695.
O:England
H:1695.
Z:Chris Partington.
K:Bb
G2B2A2G2|d4B4|F2c2A2F2|cBA>G^F3E/F/|
G2B2A2G2|d3c/d/e3d|c2BcA2d2|B2G6:|
|:B4d2cB|defdB4|F4A2GF|cBA>G^F3E/F/|
G2A>B cde2|d2f2=efge|b2aga2^f2|g4-g4:|
